public/images/footer/google.svg

<svg width="37" height="37" viewBox="0 0 37 37" fill="none" xmlns="http://www.w3.org/2000/svg">
<rect x="1" y="1" width="35" height="35" rx="17.5" stroke="white"/>
<path d="M11.4306 22.545C12.788 20.5587 15.4093 20.3932 16.7004 20.5727C16.3414 20.1726 15.4363 19.4279 16.0749 18.2003C13.1606 18.5725 12.2292 16.7105 12.0962 15.2483C11.8301 12.7932 13.9057 11.0279 16.0348 11H20.7456C20.5859 11.1519 19.8007 11.6899 19.6144 11.6899L18.3769 11.7035C21.5307 14.7794 18.4699 17.3589 17.8443 17.8965C16.5802 19.4827 20.5458 20.2689 20.3329 22.9587C20.3329 25.3999 18.3503 27 15.2497 27C11.8031 26.9864 10.1533 24.7659 11.4306 22.545ZM18.3371 25.5106C19.5747 24.5312 19.282 23.083 18.3237 22.1173C17.7514 21.5381 17.0595 20.9864 15.5956 21.1655C13.8787 21.3726 12.628 22.2276 12.6947 23.5655C13.0538 26.4072 17.0063 26.4759 18.3368 25.4966L18.3371 25.5106ZM17.4988 17.1658C18.9226 15.9518 17.6052 11.7178 15.6623 11.7178C14.4247 11.7178 13.7861 12.6417 13.7325 13.9523C13.6396 16.3795 15.7822 18.628 17.4988 17.1658ZM23.7929 18.7104L21.6506 18.7244V17.6071H23.7667V15.4142H24.8446V17.6075L26.9869 17.6211L27 18.7247H24.8446V20.9316L23.7798 20.9456L23.7929 18.7104Z" fill="white"/>
</svg>

<svg xmlns="http://www.w3.org/2000/svg" width="37" height="37" fill="none"><rect width="35" height="35" x="1" y="1" stroke="#fff" rx="17.5"/><path fill="#fff" d="M11.43 22.545c1.358-1.986 3.98-2.152 5.27-1.972-.359-.4-1.264-1.145-.625-2.373-2.914.373-3.846-1.49-3.979-2.952-.266-2.455 1.81-4.22 3.939-4.248h4.71c-.16.152-.944.69-1.13.69l-1.238.014c3.154 3.075.093 5.655-.533 6.192-1.264 1.587 2.702 2.373 2.489 5.063 0 2.44-1.983 4.041-5.083 4.041-3.447-.014-5.097-2.234-3.82-4.455m6.907 2.966c1.238-.98.945-2.428-.013-3.394-.573-.579-1.265-1.13-2.728-.951-1.717.207-2.968 1.062-2.901 2.4.359 2.841 4.311 2.91 5.642 1.93zm-.838-8.345c1.424-1.214.106-5.448-1.837-5.448-1.237 0-1.876.924-1.93 2.234-.092 2.428 2.05 4.676 3.767 3.214m6.294 1.544-2.142.014v-1.117h2.116v-2.193h1.078v2.194l2.142.013.013 1.104h-2.155v2.207l-1.065.014z"/></svg>
